images/icon2.svg

<svg width="86" height="86" viewBox="0 0 86 86" fill="none" xmlns="http://www.w3.org/2000/svg">
<circle cx="43" cy="43" r="43" fill="#96A9C6"/>
<path fill-rule="evenodd" clip-rule="evenodd" d="M27 43C27 34.1641 34.1641 27 43 27C51.8379 27 59 34.1641 59 43C59 51.8359 51.8379 59 43 59C34.1641 59 27 51.8359 27 43ZM43.9531 50.7364C45.4395 50.5801 46.5761 50.0606 47.3633 49.1777C48.1504 48.2969 48.5449 47.1953 48.5449 45.8732C48.5449 45.0119 48.3536 44.2599 47.9728 43.6153C47.5899 42.9727 47.0802 42.4669 46.4396 42.1016C45.8009 41.7364 44.9181 41.3477 43.7931 40.9376C42.7696 40.5606 42.0997 40.2462 41.7891 39.9923C41.4766 39.7364 41.3204 39.3711 41.3204 38.8946C41.3204 38.4278 41.4824 38.0293 41.8067 37.7012C42.1289 37.3731 42.5586 37.209 43.0938 37.209C44.1601 37.209 44.9454 37.9434 45.4551 39.4121L48.0645 38.3418C47.4415 36.1993 46.0704 35.002 43.9532 34.7481V33H42.0586V34.748C40.6562 34.9453 39.6289 35.4863 38.9766 36.3711C38.3242 37.2577 37.9961 38.2558 37.9961 39.3632C37.9961 40.207 38.1796 40.9492 38.5449 41.5859C38.9101 42.2207 39.3867 42.7149 39.9726 43.0664C40.5586 43.4218 41.3731 43.7774 42.4141 44.1386C43.5723 44.5487 44.3203 44.8867 44.6562 45.1543C44.9921 45.4199 45.1601 45.8125 45.1601 46.3301C45.1601 46.8301 44.9922 47.2558 44.6562 47.6094C44.3203 47.9629 43.7929 48.1387 43.0801 48.1387C41.5547 48.1387 40.6562 47.3144 40.3848 45.6641L37.4551 46.4277C38.0468 49.0527 39.5801 50.4942 42.0586 50.7481V53H43.9531V50.7364Z" fill="white"/>
</svg>

<svg xmlns="http://www.w3.org/2000/svg" width="86" height="86" fill="none"><circle cx="43" cy="43" r="43" fill="#96A9C6"/><path fill="#fff" fill-rule="evenodd" d="M27 43c0-8.836 7.164-16 16-16 8.838 0 16 7.164 16 16s-7.162 16-16 16c-8.836 0-16-7.164-16-16Zm16.953 7.736c1.486-.156 2.623-.675 3.41-1.558.787-.881 1.182-1.983 1.182-3.305 0-.861-.191-1.613-.572-2.258a4.16 4.16 0 0 0-1.533-1.513c-.64-.366-1.522-.754-2.647-1.164-1.023-.377-1.693-.692-2.004-.946-.312-.256-.469-.62-.469-1.097 0-.467.162-.866.487-1.194.322-.328.752-.492 1.287-.492 1.066 0 1.851.734 2.361 2.203l2.61-1.07c-.623-2.143-1.995-3.34-4.112-3.594V33H42.06v1.748c-1.403.197-2.43.738-3.082 1.623a4.927 4.927 0 0 0-.98 2.992c0 .844.183 1.586.548 2.223a4.032 4.032 0 0 0 1.428 1.48c.586.356 1.4.711 2.441 1.073 1.158.41 1.906.748 2.242 1.015.336.266.504.658.504 1.176 0 .5-.168.926-.504 1.28-.336.353-.863.529-1.576.529-1.525 0-2.424-.825-2.695-2.475l-2.93.764c.592 2.625 2.125 4.066 4.604 4.32V53h1.894v-2.264Z" clip-rule="evenodd"/></svg>
